X: 7
T: Kitty Lie Over
R: jig
M: 6/8
L: 1/8
K: Dmaj
|: dcB |AFF DFF | AFd B2 A | A^GA F2 D | F^EF =EE/F/G |
AFF D2 F | AFd B2 A | A^GA F2 E | EDC :|[2 EDD D2 ||
|: e |fdd dAd | fdc d2 e | f^ef d=ef | g2 f efg |
ff/e/d B2 d | Add G2 d | A^GA F2 E |[1 EDD D2 :|[2 EDC |]


Tune 948	Setting 14142

